X:544
T: GESTERN ABEND IN DER STILLEN RUH
N: E0522D
O: Europa, Mitteleuropa, Deutschland, Rheinpfalz
N: +++ Zeile 264 (+Auftakt 265) "gefhlsmig" auf 4/4 getrimmt! ++++
R: Liebes - Lied
M: 4/4
L: 1/16
K: A
E2E2 | A6A2A2c2e2c2 | c3dB4z4
B2c2 | d3dd2d2c2B2c3B | B3cA4z4
A2B2 | c3Ac3Ac4d2c2 | B3GB3GB4
B2d2 | c2A2A2ABc2
A2B3G | B3cA4z4

@@@ Tune index: 4194
